X: 18911
T: Indeedin You Needn't Bother
R: slip jig
M: 9/8
K: Aminor
c'|c'ba bgb agd|eac' e'ac' [b2d2]b|[c'e]ba bag agd|egd ecB A2:|
B|cBc cge dBG|Gce gce [d2G2]B|[cG]Bc cge dBG|EGD ECB, A,2:|

